img/exp-logo-3.svg

<svg width="106" height="46" viewBox="0 0 106 46" fill="none" xmlns="http://www.w3.org/2000/svg">
<g clip-path="url(#clip0_1116_221)">
<path d="M53.9878 11.2383C53.9878 13.8777 53.9878 16.5187 53.9878 19.158C53.9878 22.6483 53.9878 26.1385 53.9878 29.6271C53.9878 30.9149 53.5499 31.3567 52.2805 31.3616C51.5396 31.3649 50.7987 31.3714 50.0578 31.3599C49.0189 31.3436 48.553 30.8887 48.5497 29.8562C48.5415 27.1841 48.5464 24.512 48.5464 21.8399C48.5464 15.3503 48.5464 8.8624 48.5464 2.37282C48.5464 1.08177 48.9728 0.648153 50.257 0.639971C51.1346 0.635062 52.0121 0.639971 52.8897 0.648153C53.675 0.654698 54.1969 1.01796 54.5838 1.7183C57.9557 7.82335 61.3506 13.9153 64.739 20.0105C64.8377 20.1889 64.9563 20.3591 65.1967 20.742C65.1967 20.2462 65.1967 19.9893 65.1967 19.7324C65.1967 13.9791 65.1967 8.22588 65.1967 2.47427C65.1967 1.03432 65.5951 0.643244 67.0621 0.638335C67.6663 0.636699 68.2689 0.633426 68.8731 0.638335C70.1623 0.648153 70.6068 1.08341 70.6068 2.363C70.6101 8.85258 70.6068 15.3405 70.6068 21.8301C70.6068 24.4482 70.6101 27.0646 70.6068 29.6827C70.6052 30.91 70.154 31.3534 68.9209 31.3599C68.18 31.3632 67.4358 31.319 66.6999 31.3698C65.661 31.4418 65.0304 30.9934 64.5414 30.0951C61.4264 24.3778 58.2751 18.6802 55.1337 12.9761C54.8077 12.3837 54.4735 11.7963 54.1442 11.2056L53.9878 11.2367V11.2383Z" fill="black"/>
<path d="M74.6452 16.0298C74.6452 11.5038 74.6452 6.97616 74.6452 2.45015C74.6452 1.05929 75.0601 0.637121 76.4579 0.645302C78.9259 0.658393 81.4004 0.594577 83.8635 0.732026C90.487 1.10019 95.2913 5.16968 96.7566 11.5987C97.5782 15.2019 97.4745 18.8132 96.4191 22.3509C94.9521 27.2696 91.5572 30.1168 86.5159 31.0167C85.2284 31.2458 83.903 31.3178 82.5924 31.3522C80.4817 31.4062 78.3677 31.3702 76.2537 31.3653C75.121 31.362 74.6583 30.9104 74.6485 29.7764C74.6353 28.1401 74.6452 26.5038 74.6452 24.8675C74.6452 21.9222 74.6452 18.9768 74.6452 16.0315V16.0298ZM80.1228 26.7067C81.0382 26.7067 81.8828 26.7067 82.7274 26.7067C86.7941 26.7067 89.8169 24.6662 91.223 20.8717C92.4545 17.5451 92.336 14.1939 91.1275 10.8837C90.6253 9.50916 89.7807 8.33757 88.6398 7.39015C86.1471 5.31859 83.1917 5.24332 80.1228 5.38895V26.7051V26.7067Z" fill="black"/>
<path d="M29.5051 17.8884V26.5756C29.8311 26.5756 30.1242 26.5756 30.4156 26.5756C34.6963 26.5756 38.9753 26.5739 43.256 26.5756C44.5584 26.5756 44.9551 26.9797 44.9601 28.2904C44.9617 28.8353 44.97 29.3818 44.9568 29.9267C44.9354 30.8627 44.476 31.3356 43.5425 31.3569C42.7473 31.3765 41.9521 31.3618 41.1552 31.3618C35.9706 31.3618 30.7844 31.3618 25.5998 31.3618C24.1756 31.3618 23.8118 30.9985 23.8118 29.5602C23.8101 20.5082 23.8101 11.4545 23.8118 2.40245C23.8118 1.05086 24.2184 0.641786 25.5718 0.64015C31.4709 0.636877 37.3684 0.636877 43.2676 0.64015C44.5682 0.64015 45.0062 1.07213 45.0144 2.33863C45.0177 2.74771 45.0144 3.15679 45.0144 3.56586C45.0095 4.92236 44.6077 5.3298 43.261 5.33143C39.0083 5.33143 34.7556 5.33143 30.5028 5.33143C30.2032 5.33143 29.9035 5.33143 29.5364 5.33143V13.1955H30.4041C33.9982 13.1955 37.5923 13.1939 41.1865 13.1955C42.5777 13.1955 42.9811 13.6079 42.9827 15.0069C42.9827 15.362 42.9827 15.7154 42.9827 16.0705C42.9794 17.4679 42.5728 17.8835 41.1832 17.8852C37.617 17.8884 34.0492 17.8852 30.4831 17.8852C30.1834 17.8852 29.8838 17.8852 29.5051 17.8852V17.8884Z" fill="black"/>
<path d="M5.3208 17.9593C5.3208 19.3861 5.3208 20.6903 5.3208 21.9944C5.3208 24.5568 5.32409 27.1193 5.3208 29.6817C5.31915 30.9384 4.89931 31.3573 3.6612 31.3622C2.92031 31.3655 2.17942 31.3753 1.44018 31.359C0.495131 31.3393 0.00779018 30.8746 0.00614376 29.955C-0.000441932 20.6608 -0.000441932 11.365 0.00449734 2.06747C0.00449734 1.13151 0.509949 0.653707 1.51921 0.645525C3.52126 0.629162 5.52331 0.640616 7.527 0.640616C11.4504 0.640616 15.3722 0.63898 19.2956 0.640616C20.6984 0.640616 21.0935 1.04315 21.0952 2.44873C21.0952 2.88563 21.1001 3.32088 21.0952 3.75778C21.0836 4.81974 20.6128 5.30572 19.5393 5.30899C16.3304 5.31881 13.1199 5.31226 9.91102 5.31226C8.41113 5.31226 6.90959 5.31226 5.3669 5.31226V13.1551H6.28231C9.10757 13.1551 11.9328 13.1518 14.7581 13.1551C15.9534 13.1567 16.3815 13.592 16.3946 14.7897C16.3996 15.2266 16.3946 15.6619 16.3946 16.0988C16.3946 17.5715 16.0176 17.956 14.5655 17.956C11.8225 17.9576 9.07958 17.956 6.33664 17.956C6.03864 17.956 5.74063 17.956 5.32244 17.956L5.3208 17.9593Z" fill="black"/>
<path d="M106 16.0553C106 20.6042 106 25.1548 106 29.7037C106 30.9309 105.564 31.3564 104.314 31.3613C103.519 31.3645 102.724 31.3809 101.93 31.3547C101.09 31.3269 100.61 30.854 100.583 30.0195C100.555 29.1212 100.575 28.2212 100.575 27.3229C100.575 19.0677 100.575 10.8126 100.575 2.55904C100.575 1.01601 100.954 0.641295 102.52 0.639658C103.15 0.639658 103.781 0.629841 104.411 0.641295C105.554 0.662567 106 1.11091 106 2.2416C106.003 6.84616 106 11.4491 106 16.0536V16.0553Z" fill="black"/>
<path d="M58.0443 41.2135C57.7446 42.3966 57.4845 43.5927 57.119 44.7545C57.012 45.0932 56.6465 45.4957 56.3188 45.589C55.7475 45.751 55.5384 45.2519 55.4166 44.7708C55.117 43.5927 54.8124 42.4146 54.3497 41.2511C54.3497 42.3671 54.3547 43.4847 54.3481 44.6007C54.3448 45.0621 54.4057 45.6103 53.7126 45.6103C53.0408 45.6103 53.049 45.0785 53.0474 44.6088C53.0408 43.0282 53.054 41.4475 53.0392 39.8668C53.0342 39.3252 53.2087 38.9358 53.7965 38.9129C54.3761 38.89 55.0593 38.7231 55.2832 39.5461C55.5977 40.6997 55.9006 41.8582 56.2711 43.2523C56.63 41.9318 56.9577 40.8273 57.2227 39.7081C57.3594 39.1289 57.6541 38.8932 58.2468 38.8916C59.3055 38.8867 59.4882 39.0372 59.4898 40.1041C59.4931 41.6308 59.4931 43.1558 59.4882 44.6825C59.4866 45.1308 59.4734 45.6119 58.8461 45.6184C58.2221 45.6233 58.1875 45.1357 58.1809 44.6939C58.1661 43.5354 58.176 42.3753 58.176 41.2168H58.0443V41.2135Z" fill="black"/>
<path d="M43.2662 42.5438C43.7058 43.2131 44.198 43.8627 44.5619 44.5777C44.6854 44.8199 44.4763 45.2273 44.4187 45.5595C44.063 45.4433 43.5823 45.4335 43.3748 45.1913C42.9188 44.6596 42.6043 44.0099 42.2273 43.4127C41.8634 42.8351 41.3448 42.6534 40.6022 42.8285C40.6022 43.4814 40.6187 44.1294 40.5973 44.7757C40.5808 45.2486 40.408 45.733 39.8449 45.5857C39.5683 45.5137 39.2143 45.0539 39.2044 44.7594C39.1435 43.1018 39.1781 41.4393 39.1748 39.7785C39.1748 39.1567 39.5041 38.8965 40.1001 38.8998C40.813 38.903 41.5242 38.8981 42.2371 38.8998C43.5922 38.9047 44.3347 39.3383 44.5767 40.2628C44.8368 41.2511 44.4269 41.9384 43.2678 42.5454L43.2662 42.5438ZM40.6368 41.6324C41.302 41.6324 41.9128 41.7142 42.4841 41.5964C42.7558 41.5408 43.1559 41.0826 43.1279 40.8519C43.0916 40.5524 42.7245 40.127 42.4298 40.0615C41.8667 39.9355 41.2559 40.0255 40.6385 40.0255V41.6324H40.6368Z" fill="black"/>
<path d="M52.0482 42.2139C52.0531 44.3394 50.8529 45.619 48.8344 45.637C46.7731 45.655 45.5136 44.3656 45.502 42.2237C45.4905 40.1357 46.7566 38.7923 48.7373 38.7891C50.8117 38.7858 52.0433 40.0588 52.0482 42.2139ZM50.6718 42.222C50.5714 41.7933 50.5203 41.3859 50.382 41.0095C50.1021 40.2552 49.488 39.9312 48.7142 39.9345C47.9519 39.9378 47.3147 40.3386 47.1748 41.0455C47.025 41.8113 47.0365 42.6557 47.1995 43.4198C47.351 44.1283 47.998 44.5096 48.7554 44.5112C49.5012 44.5112 50.0807 44.1627 50.3639 43.464C50.5236 43.0696 50.573 42.6311 50.6702 42.222H50.6718Z" fill="black"/>
<path d="M66.5361 45.0573C66.4192 45.1882 66.2694 45.486 66.0405 45.5679C65.8463 45.6366 65.5581 45.4648 65.3194 45.3764C65.2585 45.3535 65.2272 45.2471 65.1893 45.1752C64.977 44.7792 64.8321 44.1148 64.539 44.0412C63.8426 43.8694 63.0753 43.9545 62.3394 43.9921C62.1912 44.0003 62.02 44.2375 61.9261 44.4061C61.7813 44.6646 61.7631 45.0262 61.5656 45.2128C61.3548 45.4124 60.9729 45.5793 60.7127 45.5253C60.5514 45.4926 60.3159 44.9673 60.39 44.7644C61.0535 42.958 61.7434 41.1597 62.504 39.3908C62.8514 38.5841 63.8936 38.5416 64.2459 39.3237C65.0478 41.104 65.7442 42.9318 66.4818 44.7399C66.5015 44.789 66.4999 44.8463 66.5345 45.0557L66.5361 45.0573ZM62.4859 42.85H64.292C63.9908 42.022 63.7191 41.2824 63.3832 40.3628C63.0506 41.2857 62.7823 42.0285 62.4859 42.85Z" fill="black"/>
</g>
<defs>
<clipPath id="clip0_1116_221">
<rect width="106" height="45" fill="white" transform="translate(0 0.636719)"/>
</clipPath>
</defs>
</svg>

<svg width="106" height="46" viewBox="0 0 106 46" fill="none" xmlns="http://www.w3.org/2000/svg"><g clip-path="url(#clip0_1116_221)" fill="#000"><path d="M53.988 11.238v18.39c0 1.287-.438 1.729-1.707 1.734-.741.003-1.482.01-2.223-.002-1.04-.016-1.505-.471-1.508-1.504-.008-2.672-.004-5.344-.004-8.016V2.373c0-1.291.427-1.725 1.711-1.733.878-.005 1.755 0 2.633.008.785.007 1.307.37 1.694 1.07 3.372 6.105 6.767 12.197 10.155 18.293.099.178.217.348.458.731V2.474c0-1.44.398-1.83 1.865-1.836.604-.001 1.207-.005 1.811 0 1.29.01 1.734.445 1.734 1.725.003 6.49 0 12.978 0 19.467 0 2.618.003 5.235 0 7.853-.002 1.227-.453 1.67-1.686 1.677-.741.003-1.485-.041-2.221.01-1.039.072-1.67-.377-2.159-1.275-3.115-5.717-6.266-11.415-9.407-17.119-.326-.592-.66-1.18-.99-1.77l-.156.03v.002zm20.657 4.792V2.45c0-1.39.415-1.813 1.813-1.805 2.468.013 4.942-.05 7.406.087C90.487 1.1 95.29 5.17 96.757 11.599c.821 3.603.718 7.214-.338 10.752-1.467 4.919-4.862 7.766-9.903 8.666-1.288.229-2.613.3-3.924.335-2.11.054-4.224.018-6.338.013-1.133-.003-1.596-.455-1.606-1.589-.013-1.636-.003-3.272-.003-4.909V16.03zm5.478 10.677h2.604c4.067 0 7.09-2.04 8.496-5.835 1.231-3.327 1.113-6.678-.096-9.988-.502-1.375-1.346-2.546-2.487-3.494-2.493-2.071-5.448-2.147-8.517-2.001v21.318zm-50.618-8.819v8.688h.91c4.281 0 8.56-.002 12.841 0 1.302 0 1.7.404 1.704 1.714.002.545.01 1.092-.003 1.637-.022.936-.481 1.409-1.415 1.43-.795.02-1.59.005-2.387.005H25.6c-1.424 0-1.788-.363-1.788-1.802-.002-9.052-.002-18.105 0-27.158 0-1.351.406-1.76 1.76-1.762C31.47.637 37.368.637 43.268.64c1.3 0 1.738.432 1.746 1.699.004.409 0 .818 0 1.227-.005 1.356-.406 1.764-1.753 1.765H29.536v7.864h11.651c1.39 0 1.794.413 1.796 1.812v1.063c-.004 1.398-.41 1.814-1.8 1.815-3.566.003-7.134 0-10.7 0h-.978v.003zM5.32 17.96v4.034c0 2.563.004 5.125 0 7.688 0 1.256-.42 1.675-1.659 1.68-.74.004-1.482.013-2.22-.003-.946-.02-1.433-.484-1.435-1.404C0 20.661 0 11.365.004 2.067.004 1.132.51.654 1.52.646 3.521.629 5.523.64 7.527.64c3.923 0 7.845-.002 11.769 0 1.402 0 1.797.402 1.8 1.808 0 .437.004.872 0 1.309-.012 1.062-.483 1.548-1.557 1.551-3.209.01-6.42.003-9.628.003H5.367v7.843h.915c2.826 0 5.65-.003 8.476 0 1.195.002 1.623.437 1.637 1.635.005.437 0 .872 0 1.309 0 1.473-.377 1.857-1.83 1.857-2.742.002-5.485 0-8.228 0H5.322l-.001.003zM106 16.055v13.649c0 1.227-.436 1.652-1.686 1.657-.795.003-1.59.02-2.384-.006-.84-.028-1.32-.501-1.347-1.335-.028-.899-.008-1.799-.008-2.697V2.559c0-1.543.379-1.918 1.945-1.92.63 0 1.261-.01 1.891.002 1.143.022 1.589.47 1.589 1.6.003 4.605 0 9.208 0 13.813v.001zM58.044 41.214c-.3 1.183-.56 2.379-.925 3.54-.107.34-.472.742-.8.835-.572.162-.78-.337-.902-.818-.3-1.178-.605-2.356-1.067-3.52 0 1.116.005 2.234-.002 3.35-.003.461.058 1.01-.635 1.01-.672 0-.664-.532-.666-1.002-.006-1.58.007-3.162-.008-4.742-.005-.542.17-.931.758-.954.58-.023 1.262-.19 1.486.633.315 1.154.618 2.312.988 3.706.359-1.32.687-2.425.952-3.544.136-.58.431-.815 1.024-.816 1.059-.005 1.241.145 1.243 1.212.003 1.527.003 3.052-.002 4.578-.001.449-.015.93-.642.936-.624.005-.658-.482-.665-.924-.015-1.159-.005-2.319-.005-3.477h-.132v-.003zm-14.778 1.33c.44.67.932 1.319 1.296 2.034.123.242-.086.65-.143.981-.356-.116-.837-.125-1.044-.368-.456-.531-.77-1.181-1.148-1.778-.364-.578-.882-.76-1.625-.584 0 .652.017 1.3-.005 1.947-.016.473-.189.957-.752.81-.277-.072-.63-.532-.64-.827-.061-1.657-.027-3.32-.03-4.98 0-.622.33-.883.925-.88.713.004 1.424 0 2.137 0 1.355.006 2.098.44 2.34 1.364.26.988-.15 1.675-1.31 2.282v-.001zm-2.63-.912c.666 0 1.277.082 1.848-.036.272-.055.672-.513.644-.744-.036-.3-.404-.725-.698-.79-.563-.127-1.174-.036-1.791-.036v1.606h-.002zm11.412.582c.005 2.125-1.195 3.405-3.214 3.423-2.06.018-3.32-1.271-3.332-3.413-.012-2.088 1.255-3.432 3.235-3.435 2.075-.003 3.306 1.27 3.311 3.425zm-1.376.008c-.1-.429-.152-.836-.29-1.212-.28-.755-.894-1.079-1.668-1.075-.762.003-1.4.404-1.54 1.11a6.067 6.067 0 00.026 2.375c.151.708.798 1.09 1.555 1.091.746 0 1.326-.348 1.609-1.047.16-.394.209-.833.306-1.242h.002zm15.864 2.835c-.117.131-.267.429-.496.51-.194.07-.482-.102-.72-.19-.061-.024-.093-.13-.13-.202-.213-.396-.358-1.06-.651-1.134-.696-.172-1.464-.086-2.2-.049-.148.008-.319.245-.413.414-.145.259-.163.62-.36.807-.211.2-.593.366-.853.312-.162-.032-.397-.558-.323-.76a106.803 106.803 0 012.114-5.374c.347-.807 1.39-.85 1.742-.067.802 1.78 1.498 3.608 2.236 5.416.02.049.018.106.052.316l.002.001zm-4.05-2.207h1.806c-.301-.828-.573-1.568-.909-2.487l-.897 2.487z"/></g><defs><clipPath id="clip0_1116_221"><path fill="#fff" transform="translate(0 .637)" d="M0 0h106v45H0z"/></clipPath></defs></svg>
